X: 6
T: Mullingar Lea, The
Z: Theirlandais
S: https://thesession.org/tunes/1657#setting29849
R: reel
M: 4/4
L: 1/8
K: Gmix
BGdG GFDE|F2AF CFAc|BGdG GFDE|1 FAdc BGGA:|2 FAdc BGBd||
|:gfgd Bcde| fefc ABcd|1 gfgd Bc cA|dgfa g3^f:|2 fdcA D3E|FAdc BGGA||
